X: 2150
T: Aughacashel, The
R: reel
M: 4/4
K: Gmajor
DEGA BG~G2|AGBG AGEG|DEGA Bdef|gedB cBAF|
DEGA BG~G2|AGBG AGDC|B,DGB dBeB|1 dBAB ~G3E:|2 dBAB ~G3f||
gB~B2 GABd|eBdB GABG|(3ABA GB AE~E2|(3cdc Bc Adef|
gfga bgaf|gedB ABGE|DEGB dBeB|1 dBAB ~G3f:|2 dBAB ~G3E||

